X: 101
T: Wandering Minstrel, The
C: Trad.
O: Cape Breton
S: Jerry Holland, Lively Steps
Z: transcribed by Alan Snyder, 6/5/03
R: jig
M: 6/8
L: 1/8
K: D
ADD BAF|Ade fdB|ADD BAG|FEF GFE|
ADD BAF|Ade fdA|BdB AFE|1 FDD DdB:|2 FDD D2A||
|:ABd ede|fdB AFA|B3 BAF|BAF E2g|
faf ede|fdB AFA|BdB AFE|1FDD D2A:|2FDD Dag||
|:fdf agf|g/2a/2 be g/2a/2 be|fdf afd|c/2d/2 eA c/2d/2 eg|
fdf agf|gbe gbe|faf ede|1 fdd d2g:|2 fdd dcB||
